storage/app/icons/phosphoricons/duotone/dots-six-vertical-duotone.svg

<svg xmlns="http://www.w3.org/2000/svg" fill="currentColor" viewBox="0 0 256 256"><path d="M208 32v192a16 16 0 0 1-16 16H64a16 16 0 0 1-16-16V32a16 16 0 0 1 16-16h128a16 16 0 0 1 16 16" opacity=".2"/><path d="M104 60a12 12 0 1 1-12-12 12 12 0 0 1 12 12m60 12a12 12 0 1 0-12-12 12 12 0 0 0 12 12m-72 44a12 12 0 1 0 12 12 12 12 0 0 0-12-12m72 0a12 12 0 1 0 12 12 12 12 0 0 0-12-12m-72 68a12 12 0 1 0 12 12 12 12 0 0 0-12-12m72 0a12 12 0 1 0 12 12 12 12 0 0 0-12-12"/></svg>

<svg xmlns="http://www.w3.org/2000/svg" viewBox="0 0 256 256" fill="currentColor"><path d="M208,32V224a16,16,0,0,1-16,16H64a16,16,0,0,1-16-16V32A16,16,0,0,1,64,16H192A16,16,0,0,1,208,32Z" opacity="0.2"/><path d="M104,60A12,12,0,1,1,92,48,12,12,0,0,1,104,60Zm60,12a12,12,0,1,0-12-12A12,12,0,0,0,164,72ZM92,116a12,12,0,1,0,12,12A12,12,0,0,0,92,116Zm72,0a12,12,0,1,0,12,12A12,12,0,0,0,164,116ZM92,184a12,12,0,1,0,12,12A12,12,0,0,0,92,184Zm72,0a12,12,0,1,0,12,12A12,12,0,0,0,164,184Z"/></svg>
